X: 1
T:Flirtat:ion -- Reel
M:C|
L:1/8
R:reel
B:Ryan's Mammoth Collection
N:306
Z:Contributed by Ray Davies,  ray:davies99.freeserve.co.uk
K:G
uD2|\
GFGA BGAB | {d}cBcd "0"e2kf2 | .g2.d2 "4"edcB | cBA^G .A2.D2 |
GFGA BGAB | {d}cBcd "0"e2kf2 | gd"4"ec BdcA | GBAF G2 :|
|:ud2|\
{a}gfga bagf | {f}"0"e^def .g2.d2 | {a}gfga bagf | {f}"0"edef .g2.D2 |
GFGA BGAB | {d}cBcd "0"e2kf2 | (gf)gd (ec)Ac | (BG)(AF) G2 :|
